!!!!SEGMENT: pl-gd--ee-2628--006-008_stabile-annibale--il-terzo-libro-de-madrigali-a-cinque-voci-tien-pur-anima.krn
!!!cenid: 15xx:1075
!!!COM: Stabile, Annibale
!!!COM-rismID: pe30009662
!!!CDT: ~1535-1595/04
!!!CNT: Italian
!!!GTL: Il terzo libro de madrigali a cinque voci
!!!OTL: Tien pur anima
!!!OMV: 008
!!!PDT: 1585
!!!AGN:
!!!SMS-siglum: PL-GD
!!!SMS-shelfmark: Ee 2628
!!!SMS-variant:
!!!SMS-altvar:
!!!SMS-shelfwork: 006-008 G
!!!NIFC-rismSourceID: 990060530
!!!NIFC-islandoraID: pl-gd:66139
!!!URL-pdf-islandora: https://repozytorium.nifc.pl/islandora/object/pl-gd%3A66139/datastream/PDF/view
!!!URL-scan: https://polish.musicsources.pl/pl/lokalizacje/galeria/klocki-introligatorskie/673 @EN{Scan on Polish Music Herritage in Open Access Website} @PL{Skany w portalu Dziedzictwo Muzyki Polskiej w otwartym dostępie}
!!!ONB-nifc: UWAGA: Canto: s. 90-101, Tenore: s. 246-257, Basso: s. 402-413, Quinto: s. 724-735. Dla głosu Alto proszę skorzystać z https://pbc.gda.pl/dlibra/publication/87582/edition/79411/content, str. 25-48. Uwaga: utwory podzielone wg spisu treści dostępnych na końcu ksiąg – proszę sprawdzać sąsiednie tytuły. Głos Quinto proszę umieszczać wg ambitusu (może się różnić w zależności od utworu).
!!!AIN: 1 alto 1 bass 1 soprn 1 tenor   1 vox
!!!key:
**kern	**text	**kern	**text	**kern	**text	**kern	**text	**kern	**text
*part5	*part5	*part4	*part4	*part3	*part3	*part2	*part2	*part1	*part1
*staff5	*staff5	*staff4	*staff4	*staff3	*staff3	*staff2	*staff2	*staff1	*staff1
*I"BASSO	*	*I"TENORE	*	*I"ALTO	*	*I"CANTO	*	*I"QVINTO	*
*I'B	*	*I'T	*	*I'A	*	*I'S	*	*I'V	*
*ICvox	*	*ICvox	*	*ICvox	*	*ICvox	*	*ICvox	*
*Ibass	*	*Itenor  	*	*Ialto	*	*Isoprn	*	*Ivox	*
*clefF3	*	*clefC3	*	*clefC2	*	*clefG2	*	*clefC3	*
*k[b-]	*	*k[b-]	*	*k[b-]	*	*k[b-]	*	*k[b-]	*
*g:	*	*g:	*	*g:	*	*g:	*	*g:	*
*M2/1	*	*M2/1	*	*M2/1	*	*M2/1	*	*M2/1	*
*met(C)	*	*met(C)	*	*met(C)	*	*met(C)	*	*met(C)	*
=1-	=1-	=1-	=1-	=1-	=1-	=1-	=1-	=1-	=1-
!LO:TX:a:t=Prima parte	!	!LO:TX:a:t=Prima parte	!	!LO:TX:a:t=Prima parte	!	!LO:TX:a:t=Prima parte	!	!LO:TX:a:t=Prima parte	!
!LO:TX:t=P:problem:podwójnie zapisany znak przykluczowy: BB- B-	!	!	!	!LO:TX:t=P:problem:podwójnie zapisany znak przykluczowy: B- b-	!	!	!	!	!
1d	TIen	1r	.	0a	TIen	00dd	TIen	0f#X	TIen
2D/	pur	1d	TIen	.	.	.	.	.	.
2.d\	a-	.	.	.	.	.	.	.	.
=2-	=2-	=2-	=2-	=2-	=2-	=2-	=2-	=2-	=2-
.	.	2G/	pur	2b-\	pur	.	.	1g	pur
4d\	-ni-	.	.	.	.	.	.	.	.
2G\	-ma	2.g\	a-	2.b-\	a-	.	.	.	.
1B-	ſal-	.	.	.	.	.	.	1r	.
.	.	4g\	-ni-	4b-\	-ni-	.	.	.	.
.	.	2d\	-ma	2g\	-ma	.	.	.	.
=3-	=3-	=3-	=3-	=3-	=3-	=3-	=3-	=3-	=3-
1A	-do il	2f\	ſal-	1.a	ſal-	1cc	pur	1r	.
.	.	2e\	-do il	.	.	.	.	.	.
2F#X/	bel	4d\	bel	.	.	2dd\	a-	2r	.
.	.	4c\	.	.	.	.	.	.	.
2G\	de-	4B-/	.	2g\	-do il	4dd\	-ni-	2d\	Tien
.	.	4A/	.	.	.	4dd\	-ma	.	.
=4-	=4-	=4-	=4-	=4-	=4-	=4-	=4-	=4-	=4-
2E-X/	-ſi-	2B-/	.	2.g\	bel	1ee-X	ſal-	2G/	pur
2C/	.	2c/	de-	.	.	.	.	2.g\	a-
.	.	.	.	4c/	de-	.	.	.	.
*custos:G	*	*	*	*	*	*	*	*	*
!LO:LB:g=original	!	!	!	!	!	!	!	!	!
1G	-o	1B-	-ſi-	2d/	-ſi-	2dd\	-do il	.	.
.	.	.	.	.	.	.	.	4g\	-ni-
.	.	.	.	2g\	-o	1dd\	bel	2d\	-ma
=5-	=5-	=5-	=5-	=5-	=5-	=5-	=5-	=5-	=5-
00r	.	1A	-o	2r	.	.	.	2fny\	ſal-
.	.	.	.	2a\	il	2cc\	de-	2e\	-do il
.	.	1r	.	2a\	bel	4ff\	-ſi-	4d\	bel-
.	.	.	.	.	.	4eeny\	.	4c/	.
*	*	*	*	*	*	*	*	*custos:B-	*
!	!	!	!	!	!	!	!	!LO:LB:g=original	!
.	.	.	.	2d/	de-	4dd\	.	4B-/	.
.	.	.	.	.	.	4cc\	.	4A/	.
*	*	*custos:d	*	*	*	*	*	*	*
!	!	!LO:LB:g=original	!	!	!	!	!	!	!
=6-	=6-	=6-	=6-	=6-	=6-	=6-	=6-	=6-	=6-
.	.	1r	.	1e-X	-fi-	2b-/	.	2G/	.
.	.	.	.	.	.	4a/	.	1g	-de-
.	.	.	.	.	.	4g/	.	.	.
*	*	*	*	*custos:d	*	*custos:a	*	*	*
!	!	!	!	!LO:LB:g=original	!	!LO:LB:g=original	!	!	!
.	.	2r	.	1d	-o	1a	.	.	.
.	.	2.d\	A	.	.	.	.	2f#X\	-fi-
=7-	=7-	=7-	=7-	=7-	=7-	=7-	=7-	=7-	=7-
!	!	!	!	!	!	!LO:N:acc=#	!	!	!
2.G\	A	.	.	2r	.	1bn	-o	1g	-o
.	.	4d\	ſu-	.	.	.	.	.	.
.	.	2g\	-per-	2.d/	A	.	.	.	.
4G\	ſu-	.	.	.	.	.	.	.	.
2d\	-per-	4f\	-ni	.	.	4r	.	1r	.
.	.	4d\	Te-	4d/	ſu-	2a/	A	.	.
4c\	-ni	4e\	-ſori	2a\	-per-	.	.	.	.
4A\	Te-	4f\	et	.	.	4a/	ſu-	.	.
=8-	=8-	=8-	=8-	=8-	=8-	=8-	=8-	=8-	=8-
2B-\	-ſori	4d\	im-	4f\	-ni	2dd\	-per-	1r	.
.	.	4G/	-mor-	4g\	Te-	.	.	.	.
2A\	et	2c\	-ta-	4a\	-ſori	4cc\	-ni	.	.
.	.	.	.	4f\	et	4a/	Te-	.	.
4G\	im-	2d\	-li	4g\	im-	4b-y/	-ſori	4r	.
4F#X/	-mor-	.	.	4a\	-mor-	4a/	et	2d\	A
*custos:G	*	*	*	*	*	*	*	*	*
!LO:LB:g=original	!	!	!	!	!	!	!	!	!
4.G\	-ta-	4r	.	4b-\	-ta-	4g/	im-	.	.
.	.	2G/	A	4g\	-li	4b-/	-mor-	4d\	ſu-
8F#\	.	.	.	.	.	.	.	.	.
=9-	=9-	=9-	=9-	=9-	=9-	=9-	=9-	=9-	=9-
2Eny/	.	.	.	4r	.	2cc\	-ta-	2g\	-per-
.	.	4G/	ſu-	4g\	A	.	.	.	.
2D/	-li	2d\	-per-	4a\	ſu-	2dd\	-li	4fny\	-ni
.	.	.	.	4b-\	-per-	.	.	4d\	Te-
1r	.	4c/	-ni	4cc\	-ni	2r	.	4e\	-ſori
.	.	4A/	Te-	4cc\	Te-	.	.	4f\	et
*	*	*	*	*	*	*	*	*custos:g	*
!	!	!	!	!	!	!	!	!LO:LB:g=original	!
.	.	4B-/	-ſori	2b-\	-ſori	2.dd\	A	4g\	im-
.	.	4G/	et	.	.	.	.	4g\	-mor-
=10-	=10-	=10-	=10-	=10-	=10-	=10-	=10-	=10-	=10-
0r	.	4d\	im-	4a\	et	.	.	4f\	-ta-
.	.	4f\	-mor-	2dd\	im-	4dd\	ſu-	4d\	-li
.	.	2e\	-ta-	.	.	2gg\	-per-	2r	.
.	.	.	.	4cc\	-mor-	.	.	.	.
.	.	1d	-li	2dd\	-ta-	4ff\	-ni	1r	.
.	.	.	.	.	.	4dd\	Te-	.	.
*	*	*	*	*custos:a	*	*	*	*	*
!	!	!	!	!LO:LB:g=original	!	!	!	!	!
.	.	.	.	4a\	-li	4.ff\	-ſori	.	.
.	.	.	.	4a\	et	.	.	.	.
.	.	.	.	.	.	8ee\	et	.	.
*	*	*custos:A	*	*	*	*custos:dd	*	*	*
!	!	!LO:LB:g=original	!	!	!	!LO:LB:g=original	!	!	!
=11-	=11-	=11-	=11-	=11-	=11-	=11-	=11-	=11-	=11-
1r	.	1r	.	4b-\	im-	4dd\	im-	2G/	Nul-
.	.	.	.	4a\	-mor-	4cc\	-mor-	.	.
.	.	.	.	2g\	-ta-	2b-/	-ta-	4G/	-la
.	.	.	.	.	.	.	.	4G/	ſti-
2D/	Nul-	4r	.	1f#X	-li	2a/	-li	2.d\	-man-
.	.	4A/	Nul-	.	.	.	.	.	.
4D/	-la	4A/	-la	.	.	2dd\	Nul-	.	.
4D/	ſti-	4A/	ſti-	.	.	.	.	4d\	-do
=12-	=12-	=12-	=12-	=12-	=12-	=12-	=12-	=12-	=12-
!	!	!LO:N:acc=#	!	!	!	!	!	!	!
2G\	-man-	2Bn/	-man-	2g\	Nul-	4dd\	-la	4d\	queſ-
.	.	.	.	.	.	4dd\	ſti-	4d\	-ti in-
2C/	-do	4c/	-do	4g\	-la	2ee\	-man-	2c/	-de-
.	.	2c/	queſ-	4g\	ſti-	.	.	.	.
2Fny/	queſ-	.	.	4.a\	-man-	4cc\	-do	2A/	-gni et
.	.	4c/	-ti in-	.	.	2ff\	queſ-	.	.
.	.	.	.	8a\	-do	.	.	.	.
2D/	-ti in-	4d\	-de-	4a\	queſ-	.	.	2F/	fra-
.	.	4f\	-gni et	4a\	-ti in-	4dd\	-ti in-	.	.
=13-	=13-	=13-	=13-	=13-	=13-	=13-	=13-	=13-	=13-
4E-X/	-de-	8e-X\	fra-	4g\	-de-	4cc\	-de-	2G/	-li
.	.	8d\	.	.	.	.	.	.	.
4G\	-gni et	8d\	.	4d/	-gni et	4b-/	-gni et	.	.
.	.	16c/	.	.	.	.	.	.	.
.	.	16B-y/	.	.	.	.	.	.	.
2F/	fra-	2c/	.	2fny\	fra-	2a/	fra-	2r	.
2BB-/	-li	2B-/	-li	4f\	-li	4b-/	-li	1r	.
.	.	.	.	4.b-\	Laſ-	4.dd\	Laſ-	.	.
2r	.	2r	.	.	.	.	.	.	.
.	.	.	.	8a\	-cia-	8cc\	-cia-	.	.
.	.	.	.	4g\	-li	4b-/	-li	.	.
*	*	*	*	*custos:f	*	*	*	*	*
!	!	!	!	!LO:LB:g=original	!	!	!	!	!
=14-	=14-	=14-	=14-	=14-	=14-	=14-	=14-	=14-	=14-
1r	.	2r	.	2f\	pur	4a/	pur	4r	.
*	*	*	*	*	*	*	*ij	*	*
.	.	.	.	.	.	4.ff\	Laſ-	4.d\	Laſ-
.	.	4.f\	Laſ-	2r	.	.	.	.	.
.	.	.	.	.	.	8ee\	-cia-	8c/	-cia-
.	.	.	.	.	.	4dd\	-li	4B-/	-li
.	.	8g\	-cia-	.	.	.	.	.	.
*custos:B-	*	*	*	*	*ij	*custos:cc	*	*custos:A	*
!LO:LB:g=original	!	!	!	!	!	!LO:LB:g=original	!	!LO:LB:g=original	!
4r	.	4a\	-li	4r	.	4cc\	pur	4A/	pur
4.B-\	Laſ-	4d\	pur	4.f\	Laſ-	4.dd\	Laſ-	4r	.
*	*	*custos:d	*ij	*	*	*	*	*	*
!	!	!LO:LB:g=original	!	!	!	!	!	!	!
.	.	4r	.	.	.	.	.	2r	.
8A\	-cia-	.	.	8f\	-cia-	8cc\	-cia-	.	.
4G\	-li	4.d\	Laſ-	4g\	-li	4b-\	-li	.	.
=15-	=15-	=15-	=15-	=15-	=15-	=15-	=15-	=15-	=15-
4F#X/	pur	.	.	4a\	pur	2dd\	pur	4r	.
.	.	8c\	-cia-	.	.	.	.	.	.
*	*ij	*	*	*	*Xij	*	*Xij	*	*ij
4.G\	Laſ-	4B-/	-li	4.b-\	Laſ-	.	.	4.d\	Laſ-
.	.	2G/	pur	.	.	2r	.	.	.
8F#/	-cia-	.	.	8a\	-cia-	.	.	8d\	-cia-
4E-X/	-li	.	.	4g\	-li	.	.	4G/	-li
2D/	pur	2r	.	2f#X\	pur	4r	.	1d	pur
.	.	.	.	.	.	4.dd\	Laſ-	.	.
*	*Xij	*	*Xij	*	*ij	*	*	*	*Xij
2G\	nel	4r	.	4.g\	Laſ-	.	.	.	.
.	.	.	.	.	.	8cc\	-cia-	.	.
.	.	4.g\	Laſ-	.	.	4b-/	-li	.	.
.	.	.	.	8f#\	-cia-	.	.	.	.
=16-	=16-	=16-	=16-	=16-	=16-	=16-	=16-	=16-	=16-
2C/	lo-	.	.	4eny\	-li	1cc	pur	4r	.
.	.	8f\	-cia-	.	.	.	.	.	.
.	.	4eny\	-li	4g\	pur	.	.	4.c/	Laſ-
*	*	*	*	*	*Xij	*	*	*	*
2Fny/	-ro eter-	4f\	pur	2a\	nel	.	.	.	.
.	.	.	.	.	.	.	.	8B-/	-cia-
.	.	4f\	nel	.	.	.	.	4A/	-li
2BB-/	-no	4f\	lo-	4d/	lo-	4r	.	4B-/	pur
.	.	4f\	-ro e-	4b-\	-ro e-	4dd\	nel	4d\	nel
2C/	ob-	4e\	-ter-	4g\	-ter-	4ee\	lo-	4.c/	lo-
.	.	4e\	-no o-	2a\	-no ob-	4ee\	-ro	.	.
.	.	.	.	.	.	.	.	8B-/	-ro e-
=17-	=17-	=17-	=17-	=17-	=17-	=17-	=17-	=17-	=17-
2D/	-li-	1d	-bli-	.	.	4ff\	e-	4A/	-ter-
.	.	.	.	4.g\	-li-	4dd\	-ter-	4B-/	-no ob-
2D/	-o	.	.	.	.	2dd\	-no ob-	2A/	-li-
.	.	.	.	8f#X\	.	.	.	.	.
.	.	.	.	4f#\	.	.	.	.	.
*	*	*	*	*custos:g	*	*	*	*	*
!	!	!	!	!LO:LB:g=original	!	!LO:N:acc=#	!	!	!
2r	.	1d	-o	1g	-o	1bn	-lio	2G/	-o
2G\	Tro-	.	.	.	.	.	.	4r	.
.	.	.	.	.	.	.	.	4d\	Tro-
=18-	=18-	=18-	=18-	=18-	=18-	=18-	=18-	=18-	=18-
2F/	-fei	2r	.	2a\	Tr-	00r	.	2f\	-fei
*custos:D	*	*	*	*	*	*	*	*custos:f	*
!LO:LB:g=original	!	!	!	!	!	!	!	!LO:LB:g=original	!
2D/	ſon	2d\	Tro-	2a\	-fe i	.	.	2f\	ſon
4.G\	que-	2d\	-fei	2g\	ſon	.	.	2B-/	que-
8G\	-ſti	.	.	.	.	.	.	.	.
4A\	de	2c/	ſon	2.fny\	que-	.	.	4F/	-ſti
4F/	lo	.	.	.	.	.	.	4A/	de
*	*	*custos:B-	*	*	*	*	*	*	*
!	!	!LO:LB:g=original	!	!	!	!	!	!	!
=19-	=19-	=19-	=19-	=19-	=19-	=19-	=19-	=19-	=19-
2G\	ſpir-	2.B-/	que-	.	.	.	.	2B-/	lo
.	.	.	.	4e/	-ſti	.	.	.	.
2F/	-to	.	.	2.f\	de	.	.	2c/	ſpir-
.	.	4A/	-ſti	.	.	.	.	.	.
1.BB-	ri-	2.B-/	de	.	.	.	.	2.d\	-to
.	.	.	.	4f\	lo	.	.	.	.
.	.	.	.	4f\	ſpir-	.	.	.	.
.	.	4B-/	lo	4e/	-to	.	.	4e\	.
=20-	=20-	=20-	=20-	=20-	=20-	=20-	=20-	=20-	=20-
.	.	4B-/	ſpir-	2d/	ri-	1r	.	2f\	.
.	.	4A/	-to	.	.	.	.	.	.
2C/	.	2G/	ri-	2c/	-o	.	.	2e\	ri-
1D	-o	1F	-o	1r	.	2r	.	2f\	-o
.	.	.	.	.	.	2a/	Tro-	2d\	Tro-
*	*	*	*	*	*	*custos:b-	*	*	*
!	!	!	!	!	!	!LO:LB:g=original	!	!	!
=21-	=21-	=21-	=21-	=21-	=21-	=21-	=21-	=21-	=21-
00r	.	1r	.	2r	.	2b-y/	-fei	2d\	-fei
.	.	.	.	2e/	Tro-	2cc\	ſon	2c/	ſon
.	.	4r	.	4f\	-fei	2dd\	que-	2B-/	que-
.	.	4d\	Tro-	4g\	ſon	.	.	.	.
.	.	4e\	-fei	2a\	que-	2cc\	-ſti	2A/	-ſti
.	.	4f\	ſon	.	.	.	.	.	.
=22-	=22-	=22-	=22-	=22-	=22-	=22-	=22-	=22-	=22-
.	.	4.d\	que-	2f\	-ſti	2r	.	2.B-/	de
.	.	8e\	-ſti	.	.	.	.	.	.
.	.	4f\	de	4b-\	de	2.dd\	de	.	.
.	.	4g\	lo	4b-\	lo	.	.	4B-/	lo
.	.	4d\	ſpir-	4g\	ſpir-	.	.	4B-/	ſpir-
.	.	2f\	-to	4a\	-to	4cc\	lo	4A/	-to
*	*	*	*	*custos:b-	*	*	*	*custos:G	*
!	!	!	!	!LO:LB:g=original	!	!	!	!LO:LB:g=original	!
.	.	.	.	1b-\	ri-	4b-/	ſpir-	2G/	ri-
.	.	4e\	ri-	.	.	4cc\	-to	.	.
*	*	*custos:f	*	*	*	*	*	*	*
!	!	!LO:LB:g=original	!	!	!	!	!	!	!
=23-	=23-	=23-	=23-	=23-	=23-	=23-	=23-	=23-	=23-
1r	.	1f	-o	.	.	2dd\	ri-	1F	-o
.	.	.	.	2a\	-o	2cc\	-o	.	.
2r	.	2r	.	2r	.	2r	.	1r	.
2.F/	Queſ-	2.a\	Queſ-	2.cc\	Queſ-	2.ff\	Queſ-	.	.
=24-	=24-	=24-	=24-	=24-	=24-	=24-	=24-	=24-	=24-
.	.	.	.	.	.	.	.	0r	.
4G\	-ti ad	4g\	-ti ad	4b-\	-ti ad	2dd\	-ti ad	.	.
2d\	al-	2f\	al-	2a\	al-	.	.	.	.
.	.	.	.	.	.	4.ff\	al-	.	.
!LO:N:acc=#	!	!	!	!	!	!	!	!	!
4Bn\	-to	4g\	-to	4dd\	-to	.	.	.	.
.	.	.	.	.	.	8ff\	-to	.	.
4c\	va-	4g\	va-	4cc\	va-	4ee\	va-	.	.
*custos:d	*	*	*	*	*	*	*	*	*
!LO:LB:g=original	!	!	!	!	!	!	!	!	!
4d\	-lor	4f\	-lor	4a\	-lor	4dd\	-lor	.	.
4.G\	tron-	4.g\	tron-	4.b-\	tron-	4.dd\	tron-	.	.
=25-	=25-	=25-	=25-	=25-	=25-	=25-	=25-	=25-	=25-
.	.	.	.	.	.	.	.	2r	.
8F#X/	-ca-	8a\	-ca-	8a\	-ca-	8dd\	-ca-	.	.
4G\	-no	4g\	-no	4b-\	-no	4dd\	-no	.	.
*	*	*	*	*	*	*custos:cc	*	*	*
!	!	!	!	!	!	!LO:LB:g=original	!	!	!
2C/	l`al-	2e-X\	l`al-	2g\	l`al-	2cc\	l`al-	2.c/	Queſ-
2G\	-ti	2d\	-ti	4g\	-ti	4dd\	-ti	.	.
.	.	.	.	4g\	Queſ-	2dd\	Queſ-	4B-/	-ti ad
2r	.	2r	.	4f\	-ti ad	.	.	2A/	al-
.	.	.	.	4e/	al-	4cc\	-ti ad	.	.
=26-	=26-	=26-	=26-	=26-	=26-	=26-	=26-	=26-	=26-
0r	.	2a\	Queſ-	8d/	-to	2ff\	al-	2.d\	-to
.	.	.	.	8e/	.	.	.	.	.
*	*	*	*	*custos:f	*	*	*	*	*
!	!	!	!	!LO:LB:g=original	!	!	!	!	!
.	.	.	.	8f\	.	.	.	.	.
.	.	.	.	8g\	.	.	.	.	.
.	.	4f\	-ti ad	8a\	.	4dd\	-to	.	.
.	.	.	.	8b-\	.	.	.	.	.
.	.	4g\	al-	2cc\	.	4ee\	va-	4c/	va-
.	.	4a\	-to	.	.	4cc\	-lor	4A/	-lor
.	.	4d\	va-	4b-\	va-	4.dd\	tron-	4.B-/	tron-
*	*	*custos:f	*	*	*	*	*	*	*
!	!	!LO:LB:g=original	!	!	!	!	!	!	!
.	.	2f\	-lor	4f\	-lor	.	.	.	.
.	.	.	.	.	.	8cc\	-ca-	8A/	-ca-
.	.	.	.	4.b-\	tron-	4dd\	-no	4B-/	-no
=27-	=27-	=27-	=27-	=27-	=27-	=27-	=27-	=27-	=27-
1r	.	1r	.	.	.	2b-/	l`al-	2G/	l`al-
.	.	.	.	8a\	-ca-	.	.	.	.
.	.	.	.	4g\	-no	.	.	.	.
.	.	.	.	2f#X\	l`al-	2a/	-ti	2d\	-ti
!	!	!	!	!	!	!LO:N:acc=#	!	!	!
2G\	Queſ-	2d\	Queſ-	4g\	-ti	2bn/	Queſ-	1r	.
.	.	.	.	4g\	Queſ-	.	.	.	.
4G\	-ti	4d\	-ti	4g\	-ti	4b/	-ti	.	.
4G\	ſon	4d\	ſon	4g\	ſon	4b/	ſon	.	.
=28-	=28-	=28-	=28-	=28-	=28-	=28-	=28-	=28-	=28-
4G\	quei	4d\	quei	4g\	quei	4bny/	quei	2r	.
4Fny/	pun-	4f\	pun-	4a\	pun-	4cc\	pun-	.	.
*	*	*	*	*	*	*custos:dd	*	*	*
!	!	!	!	!	!	!LO:LB:g=original	!	!	!
2.B-y\	-gen-	2.f\	-gen-	2b-\	-gen-	2.dd\	-gen-	2d\	Queſ-
.	.	.	.	4fny\	-ti a-	.	.	4d\	-ti
4F\	-ti a-	4f\	-ti a-	4a\	-cu-	4a/	-ti a-	4d\	ſon
*	*	*	*	*	*	*	*	*custos:d	*
!	!	!	!	!	!	!	!	!LO:LB:g=original	!
4G\	-cu-	4d\	-cu-	4g\	-ti	4b-yX/	-cu-	4d\	quei
4A\	-it	4f\	-it	2f\	ſtra-	4a/	-it	4c/	pun-
=29-	=29-	=29-	=29-	=29-	=29-	=29-	=29-	=29-	=29-
2B-\	ſtra-	8d\	ſtra-	.	.	2dd\	ſtra-	2.f\	-gen-
.	.	8eny\	.	.	.	.	.	.	.
.	.	8f\	.	4d/	-li	.	.	.	.
.	.	8g\	.	.	.	.	.	.	.
*	*	*	*	*custos:a	*	*	*	*	*
!G	!	!	!	!LO:LB:g=original	!	!	!	!	!
2A\	-li	4a\	.	4r	.	2cc\	-li	.	.
.	.	4e\	-li	4a\	a-	.	.	4c/	-ti a-
*custos:G	*	*	*	*	*	*	*	*	*
!LO:LB:g=original	!	!	!	!	!	!	!	!	!
00r	.	1r	.	4f\	-cu-	2r	.	4d\	-cu-
.	.	.	.	4g\	-ti	.	.	4e\	-it
.	.	.	.	2a\	ſtra-	2.cc\	Che	1f\	ſtra-
=30-	=30-	=30-	=30-	=30-	=30-	=30-	=30-	=30-	=30-
.	.	2.c/	Che	2g\	-li	.	.	.	.
.	.	.	.	.	.	4cc\	de-	.	.
.	.	.	.	2r	.	2g/	-bia-	2e\	-li
.	.	4c/	deb-	.	.	.	.	.	.
.	.	2f\	-bia-	0r	.	4a/	-mo	0r	.
.	.	.	.	.	.	4b-/	ſpun-	.	.
*	*	*custos:e	*	*	*	*	*	*	*
!	!	!LO:LB:g=original	!	!	!	!	!	!	!
.	.	4e\	-mo	.	.	2.cc\	-tar	.	.
.	.	4d\	ſpun-	.	.	.	.	.	.
=31-	=31-	=31-	=31-	=31-	=31-	=31-	=31-	=31-	=31-
.	.	4c/	-tar	.	.	.	.	.	.
.	.	4f\	tu	.	.	4a/	tu	.	.
.	.	4d\	ſem-	.	.	4b-/	ſem-	.	.
.	.	4g\	-pr`et	.	.	4b-/	-pr`et	.	.
2r	.	2f#X\	i-	2r	.	2a/	i-	2.d\	Che
2.G\	Che	2g\	-o	2.b-\	Che	2g/	-o	.	.
.	.	.	.	.	.	.	.	4d\	deb-
=32-	=32-	=32-	=32-	=32-	=32-	=32-	=32-	=32-	=32-
.	.	0r	.	.	.	1r	.	2g\	-bia-
4G\	deb-	.	.	4b-\	deb-	.	.	.	.
2D/	-bia-	.	.	2a\	-bia-	.	.	4f\	-mo
.	.	.	.	.	.	.	.	4e\	ſpun-
*	*	*	*	*	*	*custos:g	*	*	*
!	!	!	!	!	!	!LO:LB:g=original	!	!	!
4F/	-mo	.	.	4a\	-mo	0r	.	2d\	-tar
4G\	ſpun-	.	.	4b-\	ſpun-	.	.	.	.
4A\	-tar	.	.	4cc\	-tar	.	.	2c/	tu
4F/	tu	.	.	4a\	tu	.	.	.	.
=33-	=33-	=33-	=33-	=33-	=33-	=33-	=33-	=33-	=33-
4D/	ſem-	2r	.	4f#X\	ſem-	.	.	4d\	ſem-
4G\	-per`et	.	.	4g\	-per`et	.	.	4B-/	-per`et
2F#X/	io	2.d\	Che	2a\	i-	.	.	2A/	i-
*	*	*	*	*custos:d	*	*	*	*custos:G	*
!	!	!	!	!LO:PB:g=original	!	!	!	!LO:LB:g=original	!
1G	.	.	.	2d/	-o	2r	.	1G	-o
.	.	4B-/	deb-	.	.	.	.	.	.
.	.	2d\	-bia-	2r	.	2.g/	Che	.	.
=34-	=34-	=34-	=34-	=34-	=34-	=34-	=34-	=34-	=34-
1r	.	4c/	-mo	4r	.	.	.	1r	.
.	.	4B-/	ſpun-	4d/	Che	4g/	deb-	.	.
.	.	4A/	-tar	4e/	deb-	2cc\	-bia-	.	.
.	.	4F/	tu	4fny\	-bia-	.	.	.	.
2r	.	4G/	ſem-	4d/	-mo	4b-/	-mo	2r	.
.	.	4F/	-pr` et	4f\	ſpun-	4a/	ſpun-	.	.
2C/	Tu	2G/	i-	4e/	-tar	4g/	-tar	2c/	tu
.	.	.	.	4e/	tu	4cc\	tu	.	.
=35-	=35-	=35-	=35-	=35-	=35-	=35-	=35-	=35-	=35-
4Fny/	ſem-	00A	o	4f\	ſem-	4a/	ſem-	4c/	ſem-
4D/	-pre et	.	.	4a\	-pr` et	4dd\	-pre et	4f\	-pr` et
2A\	i-	.	.	2a\	i-	2cc#X\	i-	2e\	i-
!LO:N:vis=00	!	!	!	!LO:N:vis=00	!	!LO:N:vis=00	!	!LO:N:vis=00	!
0.D	-o.	.	.	0.f#X	-o.	0.dd	-o.	0d	-o.
=36-	=36-	=36-	=36-	=36-	=36-	=36-	=36-	=36-	=36-
.	.	.	.	.	.	.	.	1ryy	.
==	==	==	==	==	==	==	==	==	==
*-	*-	*-	*-	*-	*-	*-	*-	*-	*-
!!!system-decoration: [(s1,s2,s3,s4,s5)]
!!!ENC: Filip Voros
!!!END: 2022-07-09
!!!ENC: Natalia Wrzos
!!!END: 2022-08-01
